; generated by Slic3r 1.1.7 on 2014-12-09 at 23:24:29

; perimeters extrusion width = 0.35mm
; infill extrusion width = 0.67mm
; solid infill extrusion width = 0.59mm
; top infill extrusion width = 0.59mm

G21 ; set units to millimeters
M107
M190 S75 ; wait for bed temperature to be reached
M104 S195 ; set temperature
G28 ; home all axes
G1 Z5 F5000 ; lift nozzle

M109 S195 ; wait for temperature to be reached
G90 ; use absolute coordinates
G92 E0
M82 ; use absolute distances for extrusion
G1 F1800.000 E-1.00000
G92 E0
G1 Z0.350 F7800.000
G1 X83.915 Y88.253 F7800.000
G1 E1.00000 F1800.000
G1 X85.668 Y86.774 E1.07096 F1080.000
G1 X87.820 Y85.981 E1.14192
G1 X89.000 Y85.875 E1.17858
G1 X209.000 Y85.875 E4.89153
G1 X211.259 Y86.272 E4.96250
G1 X213.247 Y87.415 E5.03346 F1080.000
G1 X214.726 Y89.168 E5.10442
G1 X215.519 Y91.320 E5.17538
G1 X215.625 Y92.500 E5.21203
G1 X215.625 Y187.500 E8.15146
G1 X215.228 Y189.759 E8.22242
G1 X214.085 Y191.747 E8.29338
G1 X212.332 Y193.226 E8.36435
G1 X210.180 Y194.019 E8.43531
G1 X209.000 Y194.125 E8.47196
G1 X89.000 Y194.125 E12.18492
G1 X86.741 Y193.728 E12.25588
G1 X84.753 Y192.585 E12.32684
G1 X83.274 Y190.832 E12.39780
G1 X82.481 Y188.680 E12.46877
G1 X82.375 Y187.500 E12.50542
G1 X82.375 Y92.500 E15.44484
G1 X82.772 Y90.241 E15.51580
G1 X83.889 Y88.299 E15.58514
G1 F1800.000 E14.58514
G92 E0
G1 X96.290 Y99.422 F7800.000
G1 E1.00000 F1800.000
G1 X95.495 Y100.089 E1.03213 F1080.000
G1 X94.519 Y100.444 E1.06426
G1 X93.481 Y100.444 E1.09639
G1 X92.505 Y100.089 E1.12852
G1 X91.710 Y99.422 E1.16065
G1 X91.190 Y98.523 E1.19278
G1 X91.010 Y97.500 E1.22491
G1 X91.190 Y96.477 E1.25704
G1 X91.710 Y95.578 E1.28916
G1 X92.505 Y94.911 E1.32129
G1 X93.481 Y94.556 E1.35342
G1 X94.519 Y94.556 E1.38555
G1 X94.722 Y94.629 E1.39221
G1 X95.495 Y94.911 E1.41768 F1080.000
G1 X96.290 Y95.578 E1.44981
G1 X96.810 Y96.477 E1.48194
G1 X96.990 Y97.500 E1.51407
G1 X96.810 Y98.523 E1.54620
G1 X96.317 Y99.376 E1.57670
G1 X95.804 Y99.014 F7800.000
G1 X95.178 Y99.540 E1.60201 F756.000
G1 X94.409 Y99.820 E1.62732
G1 X93.591 Y99.820 E1.65263
G1 X92.822 Y99.540 E1.67794
G1 X92.196 Y99.014 E1.70325
G1 X92.143 Y98.923 E1.70651
G1 X91.787 Y98.306 E1.72857
G1 X91.645 Y97.500 E1.75388
G1 X91.787 Y96.694 E1.77919
G1 X92.196 Y95.986 E1.80450
G1 X92.276 Y95.918 E1.80775
G1 X92.822 Y95.460 E1.82981
G1 X93.591 Y95.180 E1.85512
G1 X94.409 Y95.180 E1.88043 F756.000
G1 X95.178 Y95.460 E1.90574
G1 X95.804 Y95.986 E1.93105
G1 X96.213 Y96.694 E1.95636
G1 X96.355 Y97.500 E1.98167
G1 X96.213 Y98.306 E2.00698
G1 X95.831 Y98.969 E2.03067
G1 F1800.000 E1.03067
G92 E0
G1 X93.510 Y94.840 F7800.000
G1 X201.010 Y97.500 F7800.000
G1 E1.00000 F1800.000
G1 X201.190 Y96.477 E1.03213 F1080.000
G1 X201.710 Y95.578 E1.06426
G1 X202.505 Y94.911 E1.09639
G1 X203.481 Y94.556 E1.12852
G1 X204.519 Y94.556 E1.16065
G1 X204.722 Y94.629 E1.16731
G1 X205.495 Y94.911 E1.19277 F1080.000
G1 X206.290 Y95.578 E1.22490
G1 X206.810 Y96.477 E1.25703
G1 X206.990 Y97.500 E1.28916
G1 X206.810 Y98.523 E1.32129
G1 X206.702 Y98.709 E1.32795
G1 X206.290 Y99.422 E1.35342
G1 X205.495 Y100.089 E1.38555
G1 X204.519 Y100.444 E1.41768
G1 X203.481 Y100.444 E1.44981
G1 X202.505 Y100.089 E1.48194
G1 X201.710 Y99.422 E1.51407
G1 X201.190 Y98.523 E1.54619
G1 X201.019 Y97.552 E1.57670
G1 X201.645 Y97.500 F7800.000
G1 X201.787 Y96.694 E1.60201 F756.000
G1 X202.196 Y95.986 E1.62732
G1 X202.822 Y95.460 E1.65263
G1 X203.591 Y95.180 E1.67794
G1 X204.409 Y95.180 E1.70325 F756.000
G1 X205.178 Y95.460 E1.72856
G1 X205.804 Y95.986 E1.75387
G1 X206.213 Y96.694 E1.77919
G1 X206.355 Y97.500 E1.80450
G1 X206.213 Y98.306 E1.82981
G1 X205.804 Y99.014 E1.85512
G1 X205.178 Y99.540 E1.88043
G1 X205.079 Y99.576 E1.88368
G1 X204.409 Y99.820 E1.90574
G1 X203.591 Y99.820 E1.93105
G1 X202.822 Y99.540 E1.95636
G1 X202.196 Y99.014 E1.98167
G1 X201.787 Y98.306 E2.00698
G1 X201.654 Y97.552 E2.03067
G1 F1800.000 E1.03067
G92 E0
G1 X203.652 Y94.836 F7800.000
G1 X203.481 Y179.555 F7800.000
G1 E1.00000 F1800.000
G1 X204.519 Y179.555 E1.03213 F1080.000
G1 X204.722 Y179.629 E1.03879
G1 X205.495 Y179.911 E1.06426 F1080.000
G1 X206.290 Y180.578 E1.09639
G1 X206.810 Y181.477 E1.12852
G1 X206.990 Y182.500 E1.16065
G1 X206.810 Y183.523 E1.19278
G1 X206.290 Y184.422 E1.22490
G1 X205.495 Y185.089 E1.25703
G1 X204.519 Y185.445 E1.28916
G1 X203.481 Y185.445 E1.32129
G1 X202.505 Y185.089 E1.35342
G1 X201.710 Y184.422 E1.38555
G1 X201.190 Y183.523 E1.41768
G1 X201.010 Y182.500 E1.44981
G1 X201.190 Y181.477 E1.48194
G1 X201.710 Y180.578 E1.51407
G1 X202.505 Y179.911 E1.54620
G1 X203.431 Y179.573 E1.57670
G1 X203.591 Y180.180 F7800.000
G1 X204.409 Y180.180 E1.60201 F756.000
G1 X205.178 Y180.460 E1.62732
G1 X205.804 Y180.986 E1.65263
G1 X206.213 Y181.694 E1.67794
G1 X206.355 Y182.500 E1.70325
G1 X206.213 Y183.306 E1.72857
G1 X205.804 Y184.014 E1.75388
G1 X205.178 Y184.540 E1.77919
G1 X205.079 Y184.576 E1.78244
G1 X204.409 Y184.820 E1.80450
G1 X203.591 Y184.820 E1.82981
G1 X202.822 Y184.540 E1.85512
G1 X202.196 Y184.014 E1.88043
G1 X201.787 Y183.306 E1.90574
G1 X201.645 Y182.500 E1.93105
G1 X201.787 Y181.694 E1.95636
G1 X202.196 Y180.986 E1.98167
G1 X202.822 Y180.460 E2.00698
G1 X202.872 Y180.442 E2.00861
G1 X203.730 Y179.859 F7800.000
G1 X197.474 Y163.974 F7800.000
G1 X180.526 Y163.974 E2.53303 F1080.000
G1 X180.526 Y122.026 E3.83099
G1 X197.474 Y122.026 E4.35541
G1 X197.474 Y163.922 E5.65174
G1 X196.850 Y163.350 F7800.000
G1 X181.150 Y163.350 E6.13749 F1080.000
G1 X181.150 Y122.650 E7.39677
G1 X196.850 Y122.650 E7.88252
G1 X196.850 Y163.297 E9.14018
G1 X196.225 Y162.725 F7800.000
G1 X181.775 Y162.725 E9.58726 F1080.000
G1 X181.775 Y123.275 E10.80788
G1 X196.225 Y123.275 E11.25496
G1 X196.225 Y162.672 E12.47395
G1 X195.600 Y162.100 F7800.000
G1 X182.400 Y162.100 E12.88236 F1080.000
G1 X182.400 Y123.900 E14.06431
G1 X195.600 Y123.900 E14.47272
G1 X195.600 Y162.047 E15.65304
G1 X194.975 Y161.475 F7800.000
G1 X183.025 Y161.475 E16.02278 F1080.000
G1 X183.025 Y124.525 E17.16605
G1 X194.975 Y124.525 E17.53580
G1 X194.975 Y161.422 E18.67745
G1 X194.350 Y160.850 F7800.000
G1 X183.650 Y160.850 E19.00852 F756.000
G1 X183.650 Y125.150 E20.11312
G1 X194.350 Y125.150 E20.44420
G1 X194.350 Y160.798 E21.54718
G1 X194.350 Y161.200 F7800.000
G1 X153.474 Y162.474 F7800.000
G1 X108.526 Y162.474 E22.93795 F1080.000
G1 X108.526 Y122.526 E24.17402
G1 X153.474 Y122.526 E25.56480
G1 X153.474 Y162.422 E26.79925
G1 X152.850 Y161.850 F7800.000
G1 X109.150 Y161.850 E28.15136 F1080.000
G1 X109.150 Y123.150 E29.34876
G1 X152.850 Y123.150 E30.70087
G1 X152.850 Y161.797 E31.89664
G1 X152.225 Y161.225 F7800.000
G1 X109.775 Y161.225 E33.21008 F1080.000
G1 X109.775 Y123.775 E34.36881
G1 X152.225 Y123.775 E35.68225
G1 X152.225 Y161.172 E36.83936
G1 X151.600 Y160.600 F7800.000
G1 X110.400 Y160.600 E38.11413 F1080.000
G1 X110.400 Y124.400 E39.23419
G1 X151.600 Y124.400 E40.50896
G1 X151.600 Y160.547 E41.62740
G1 X150.975 Y159.975 F7800.000
G1 X111.025 Y159.975 E42.86349 F1080.000
G1 X111.025 Y125.025 E43.94489
G1 X150.975 Y125.025 E45.18099
G1 X150.975 Y159.922 E46.26075
G1 X150.350 Y159.350 F7800.000
G1 X111.650 Y159.350 E47.45818 F756.000
G1 X111.650 Y125.650 E48.50090
G1 X150.350 Y125.650 E49.69833
G1 X150.350 Y159.298 E50.73943
G1 X150.350 Y159.700 F7800.000
G1 X96.810 Y181.477 F7800.000
G1 X96.990 Y182.500 E50.77156 F1080.000
G1 X96.810 Y183.523 E50.80369
G1 X96.290 Y184.422 E50.83582
G1 X95.495 Y185.089 E50.86795
G1 X94.519 Y185.445 E50.90008
G1 X93.481 Y185.445 E50.93220
G1 X92.505 Y185.089 E50.96434
G1 X91.710 Y184.422 E50.99646
G1 X91.190 Y183.523 E51.02859
G1 X91.010 Y182.500 E51.06072
G1 X91.190 Y181.477 E51.09285
G1 X91.710 Y180.578 E51.12498
G1 X92.505 Y179.911 E51.15711
G1 X93.481 Y179.555 E51.18924
G1 X94.519 Y179.555 E51.22137
G1 X94.722 Y179.629 E51.22803
G1 X95.495 Y179.911 E51.25350 F1080.000
G1 X96.290 Y180.578 E51.28562
G1 X96.783 Y181.432 E51.31613
G1 X96.213 Y181.694 F7800.000
G1 X96.355 Y182.500 E51.34144 F756.000
G1 X96.213 Y183.306 E51.36675
G1 X95.804 Y184.014 E51.39206
G1 X95.724 Y184.082 E51.39532
G1 X95.178 Y184.540 E51.41738
G1 X94.409 Y184.820 E51.44269
G1 X93.591 Y184.820 E51.46800
G1 X92.822 Y184.540 E51.49331
G1 X92.196 Y184.014 E51.51862
G1 X91.787 Y183.306 E51.54393
G1 X91.645 Y182.500 E51.56924
G1 X91.787 Y181.694 E51.59455
G1 X92.196 Y180.986 E51.61986
G1 X92.276 Y180.918 E51.62311
G1 X92.822 Y180.460 E51.64517
G1 X93.591 Y180.180 E51.67048
G1 X94.409 Y180.180 E51.69579 F756.000
G1 X95.178 Y180.460 E51.72110
G1 X95.804 Y180.986 E51.74641
G1 X96.187 Y181.649 E51.77010
G1 F1800.000 E50.77010
G92 E0
G1 X93.452 Y179.859 F7800.000
G1 X92.499 Y185.900 F7800.000
G1 E1.00000 F1800.000
G1 X90.600 Y185.900 E1.05877 F1080.000
G1 X90.600 Y184.491 E1.10239
G1 X90.970 Y184.391 E1.11425
G1 X91.224 Y184.830 E1.12993
G1 X92.459 Y185.866 E1.17982
G1 F1800.000 E0.17982
G92 E0
G1 X90.970 Y95.609 F7800.000
G1 E1.00000 F1800.000
G1 X90.600 Y95.510 E1.01187 F1080.000
G1 X90.600 Y94.100 E1.05549
G1 X92.499 Y94.100 E1.11426
G1 X91.223 Y95.170 E1.16579
G1 X90.997 Y95.563 E1.17983
G1 X92.474 Y102.738 F7800.000
G1 X93.040 Y102.944 E1.19846 F1080.000
G1 X94.960 Y102.944 E1.25786
G1 X96.764 Y102.287 E1.31726
G1 X98.235 Y101.053 E1.37667
G1 X99.195 Y99.391 E1.43607
G1 X99.528 Y97.500 E1.49548
G1 X99.259 Y95.974 E1.54340
G1 X198.741 Y95.974 E4.62151
G1 X198.472 Y97.500 E4.66943
G1 X198.805 Y99.391 E4.72884
G1 X199.765 Y101.053 E4.78824
G1 X201.236 Y102.287 E4.84765
G1 X203.040 Y102.944 E4.90705
G1 X204.960 Y102.944 E4.96645
G1 X205.526 Y102.738 E4.98508
G1 X205.526 Y177.262 E7.29094
G1 X204.960 Y177.056 E7.30956
G1 X203.040 Y177.056 E7.36896
G1 X201.236 Y177.713 E7.42837
G1 X199.765 Y178.947 E7.48777
G1 X198.805 Y180.609 E7.54717
G1 X198.472 Y182.500 E7.60657
G1 X198.741 Y184.026 E7.65451
G1 X99.259 Y184.026 E10.73261
G1 X99.528 Y182.500 E10.78054
G1 X99.195 Y180.609 E10.83994
G1 X98.235 Y178.946 E10.89935
G1 X96.764 Y177.713 E10.95874
G1 X94.960 Y177.056 E11.01815
G1 X93.040 Y177.056 E11.07755
G1 X92.474 Y177.262 E11.09618
G1 X92.474 Y102.791 E13.40041
G1 X91.850 Y101.846 F7800.000
G1 X93.150 Y102.319 E13.44324 F1080.000
G1 X94.850 Y102.319 E13.49583
G1 X96.447 Y101.738 E13.54841
G1 X97.749 Y100.645 E13.60100
G1 X98.598 Y99.174 E13.65358
G1 X98.893 Y97.500 E13.70617
G1 X98.598 Y95.826 E13.75875
G1 X98.323 Y95.350 E13.77578
G1 X199.677 Y95.350 E16.91180
G1 X199.402 Y95.826 E16.92883
G1 X199.106 Y97.500 E16.98142
G1 X199.402 Y99.174 E17.03401
G1 X200.251 Y100.646 E17.08659
G1 X201.553 Y101.738 E17.13917
G1 X203.150 Y102.319 E17.19176
G1 X204.850 Y102.319 E17.24434
G1 X206.150 Y101.846 E17.28717
G1 X206.150 Y178.154 E19.64825
G1 X204.850 Y177.681 E19.69108
G1 X203.150 Y177.681 E19.74367
G1 X201.553 Y178.262 E19.79625
G1 X200.251 Y179.354 E19.84884
G1 X199.402 Y180.826 E19.90142
G1 X199.106 Y182.500 E19.95400
G1 X199.402 Y184.174 E20.00659
G1 X199.677 Y184.650 E20.02363
G1 X98.323 Y184.650 E23.15964
G1 X98.598 Y184.174 E23.17667
G1 X98.893 Y182.500 E23.22926
G1 X98.598 Y180.826 E23.28184
G1 X97.749 Y179.354 E23.33444
G1 X96.447 Y178.262 E23.38701
G1 X94.850 Y177.681 E23.43960
G1 X93.150 Y177.681 E23.49219
G1 X91.850 Y178.154 E23.53501
G1 X91.850 Y101.898 E25.89447
G1 X91.225 Y100.646 F7800.000
G1 X91.870 Y101.188 E25.92056 F1080.000
G1 X93.261 Y101.694 E25.96633
G1 X94.740 Y101.694 E26.01209
G1 X96.129 Y101.188 E26.05786
G1 X97.263 Y100.238 E26.10363
G1 X98.002 Y98.957 E26.14939
G1 X98.259 Y97.500 E26.19516
G1 X98.002 Y96.043 E26.24092
G1 X97.241 Y94.725 E26.28804
G1 X200.759 Y94.725 E29.49103
G1 X199.998 Y96.043 E29.53815
G1 X199.741 Y97.500 E29.58391
G1 X199.998 Y98.957 E29.62968
G1 X200.737 Y100.238 E29.67545
G1 X201.871 Y101.188 E29.72121
G1 X203.260 Y101.694 E29.76698
G1 X204.740 Y101.694 E29.81275
G1 X206.130 Y101.188 E29.85851
G1 X206.775 Y100.646 E29.88460
G1 X206.775 Y179.354 E32.31990
G1 X206.129 Y178.812 E32.34598
G1 X204.740 Y178.306 E32.39175
G1 X203.260 Y178.306 E32.43752
G1 X201.870 Y178.812 E32.48328
G1 X200.737 Y179.762 E32.52905
G1 X199.998 Y181.043 E32.57481
G1 X199.741 Y182.500 E32.62058
G1 X199.998 Y183.957 E32.66635
G1 X200.759 Y185.275 E32.71346
G1 X97.241 Y185.275 E35.91646
G1 X98.002 Y183.957 E35.96357
G1 X98.259 Y182.500 E36.00934
G1 X98.002 Y181.043 E36.05510
G1 X97.262 Y179.762 E36.10087
G1 X96.130 Y178.812 E36.14663
G1 X94.740 Y178.306 E36.19240
G1 X93.260 Y178.306 E36.23817
G1 X91.871 Y178.812 E36.28393
G1 X91.225 Y179.354 E36.31002
G1 X91.225 Y100.699 E38.74370
G1 X90.970 Y99.391 F7800.000
G1 X91.224 Y99.830 E38.75937 F1080.000
G1 X92.188 Y100.639 E38.79831
G1 X93.371 Y101.069 E38.83726
G1 X94.629 Y101.069 E38.87621
G1 X95.812 Y100.639 E38.91515
G1 X96.777 Y99.830 E38.95411
G1 X97.406 Y98.740 E38.99305
G1 X97.624 Y97.500 E39.03200
G1 X97.406 Y96.260 E39.07095
G1 X96.776 Y95.170 E39.10990
G1 X95.501 Y94.100 E39.16142
G1 X202.499 Y94.100 E42.47209
G1 X201.224 Y95.170 E42.52362
G1 X200.594 Y96.260 E42.56257
G1 X200.376 Y97.500 E42.60151
G1 X200.538 Y98.419 E42.63039
G1 X200.594 Y98.740 E42.64046
G1 X201.224 Y99.830 E42.67941
G1 X202.188 Y100.639 E42.71836
G1 X203.371 Y101.069 E42.75731
G1 X204.629 Y101.069 E42.79625
G1 X205.812 Y100.639 E42.83520
G1 X206.776 Y99.830 E42.87415
G1 X207.030 Y99.391 E42.88982
G1 X207.400 Y99.490 E42.90169
G1 X207.400 Y180.510 E45.40852
G1 X207.030 Y180.609 E45.42039
G1 X206.776 Y180.170 E45.43606
G1 X205.812 Y179.361 E45.47501
G1 X204.629 Y178.931 E45.51396
G1 X203.371 Y178.931 E45.55290
G1 X202.188 Y179.361 E45.59185
G1 X201.224 Y180.170 E45.63080
G1 X200.594 Y181.260 E45.66975
G1 X200.376 Y182.500 E45.70869
G1 X200.594 Y183.740 E45.74764
G1 X201.224 Y184.830 E45.78659
G1 X202.499 Y185.900 E45.83812
G1 X95.501 Y185.900 E49.14879
G1 X96.777 Y184.830 E49.20032
G1 X97.406 Y183.740 E49.23927
G1 X97.624 Y182.500 E49.27822
G1 X97.406 Y181.260 E49.31716
G1 X96.776 Y180.170 E49.35612
G1 X95.812 Y179.361 E49.39506
G1 X94.935 Y179.042 E49.42394
G1 X94.629 Y178.931 E49.43401
G1 X93.371 Y178.931 E49.47296
G1 X92.188 Y179.361 E49.51190
G1 X91.223 Y180.170 E49.55085
G1 X90.970 Y180.609 E49.56652
G1 X90.600 Y180.510 E49.57839
G1 X90.600 Y99.491 E52.08522
G1 X90.920 Y99.405 E52.09547
G1 F1800.000 E51.09547
G92 E0
G1 X205.501 Y94.100 F7800.000
G1 E1.00000 F1800.000
G1 X207.400 Y94.100 E1.05877 F1080.000
G1 X207.400 Y95.510 E1.10239
G1 X207.030 Y95.609 E1.11426
G1 X206.777 Y95.170 E1.12993
G1 X205.541 Y94.134 E1.17983
G1 F1800.000 E0.17983
G92 E0
G1 X207.400 Y184.490 F7800.000
G1 E1.00000 F1800.000
G1 X207.400 Y185.900 E1.04362 F1080.000
G1 X205.501 Y185.900 E1.10239
G1 X206.776 Y184.830 E1.15392
G1 X207.030 Y184.391 E1.16959
G1 X207.350 Y184.477 E1.17983
G1 X208.025 Y186.525 F7800.000
G1 X89.975 Y186.525 E4.83246 F1080.000
G1 X89.975 Y93.475 E7.71156
G1 X208.025 Y93.475 E11.36419
G1 X208.025 Y186.473 E14.24166
G1 X208.650 Y187.150 F7800.000
G1 X89.350 Y187.150 E17.93296 F756.000
G1 X89.350 Y92.850 E20.85072
G1 X208.650 Y92.850 E24.54202
G1 X208.650 Y187.098 E27.45816
G1 X208.347 Y186.975 F7800.000
G1 F1800.000 E26.45816
G92 E0
G1 X180.954 Y164.407 F7800.000
G1 E1.00000 F1800.000
G1 X198.184 Y181.638 E1.75397 F1620.000
G1 X198.317 Y180.883 E1.77768
G1 X181.841 Y164.407 E2.49863
G1 X182.729 Y164.407 E2.52609
G1 X198.534 Y180.213 E3.21769
G1 X198.859 Y179.650 E3.23780
G1 X183.617 Y164.407 E3.90476
G1 X184.505 Y164.407 E3.93223
G1 X199.184 Y179.087 E4.57457
G1 X199.548 Y178.563 E4.59431
G1 X185.393 Y164.407 E5.21373
G1 X186.280 Y164.407 E5.24120
G1 X200.031 Y178.158 E5.84290
G1 X200.514 Y177.753 E5.86240
G1 X187.168 Y164.407 E6.44638
G1 X188.056 Y164.407 E6.47385
G1 X200.997 Y177.348 E7.04010
G1 X201.641 Y177.104 E7.06141
G1 X188.944 Y164.407 E7.61700
G1 X189.832 Y164.407 E7.64447
G1 X202.292 Y176.868 E8.18969
G1 X202.942 Y176.631 E8.21113
G1 X190.719 Y164.407 E8.74598
G1 X191.607 Y164.407 E8.77345
G1 X203.823 Y176.623 E9.30797
G1 X204.710 Y176.623 E9.33544
G1 X192.495 Y164.407 E9.86996
G1 X193.383 Y164.407 E9.89743
G1 X205.093 Y176.117 E10.40982
G1 X205.093 Y175.230 E10.43729
G1 X194.270 Y164.407 E10.91084
G1 X195.158 Y164.407 E10.93831
G1 X205.093 Y174.342 E11.37301
